!!!COM: Ulenberg, Caspar
!!!CDT: 1548/12/24-1617/02/16
!!!OPR: Die Psalmen Davids
!!!ONM: 17
!!!ONM-carmgen: 15
!!!OTL@@LA: Diligam te Domine
!!!OTL-incipit@@DE: Herr der du meine stercke bist
**kern	**text
*Ivox	*
*clefC4	*
*k[b-]	*
*M2/1	*
*met(C|)	*
*MM180	*
=-	=-
*xywh-#109:132,538,708,399	*
1F	Herr
2F	der
2F	du
=-	=-
2G	mei-
2A	-ne
2G	stre-
2G	-cke
=-	=-
1F	bist/
*xywh-#109:134,927,711,217	*
1F	So
=-	=-
2B-	lang
2A	in
2G	mir
2G	das
=-	=-
2A	le-
2B-	-ben
1c	ist/
=-	=-
1r	.
*xywh-#109:132,1138,719,273	*
1c	Sol-
=-	=-
2B-	-tu
2G	mir
2A	lieb
2c	von
=-	=-
1B-	her-
1A	-tzen
=-	=-
1G	sein.
*xywh-#110:151,157,712,294	*
1r	.
=-	=-
1G	Got
2B-	ist
2B-	für-
=-	=-
2c	-war
2A	der
2G	fel-
2F	-se
=-	=-
1G	mein/
*xywh-#110:153,442,710,220	*
1r	.
=-	=-
1B-	Mein
2A	krafft
2G	mein
=-	=-
2B-	hilff/
2A	mein
2G	Her-
2F	-re
=-	=-
1E	mild/
*xywh-#110:155,655,708,219	*
1r	.
=-	=-
1C	Mein
2D	macht/
2E	drauff
=-	=-
2F	ich
2F	will
2G	im-
2A	-mer
=-	=-
1G	hof-
1F	-fen/
=-	=-
1r	.
*xywh-#110:154,865,712,224	*
1G	Meins
=-	=-
1A	heils
1c	ein
=-	=-
2B-	horn/
2A	mein
2G	schirm
2F	und
=-	=-
1E	schild/
*xywh-#110:154,1084,712,238	*
1r	.
=-	=-
1F	Mein
2G	schutz/
2A	wenn
=-	=-
2c	not
2A	mich
2G	hat
2F	be-
=-	=-
1G	-trof-
1Fll;	-fen.
==	==
*-	*-
!!!RDF**kern: l = terminal long
!!!RDF**kern: i = editorial accidental
!!!AGN: Psalm
!!!YOR: https://mdz-nbn-resolving.de/details:bsb11116252
!!!YOO: München, Bayerische Staatsbibliothek
!!!URL-scan: https://www.digitale-sammlungen.de/de/view/bsb11116252?page=109
!!!IIIF: https://api.digitale-sammlungen.de/iiif/presentation/v2/bsb11116252/manifest
!!!EED: Wolfgang Drescher
!!!END: 2023/04/02
!!!ENC: Wolfgang Drescher
!!!EEV: 2023/04/02
!!!title: @{ONM}. @{OTL} / <i>@{OTL-incipit@@DE}</i>